assets/images/component/AppFooter/logo/ssfer.svg

<svg width="102" height="102" viewBox="0 0 102 102" fill="none" xmlns="http://www.w3.org/2000/svg">
<path d="M42.3352 67.795C42.3352 69.6244 41.6247 71.1834 40.2035 72.4614C38.7824 73.7446 37.0219 74.3863 34.9167 74.3863C32.7957 74.3863 31.0192 73.7446 29.6034 72.4614C28.1823 71.1781 27.4771 69.6244 27.4771 67.795V60.5091H32.6525V70.6319C32.6525 72.3606 33.4108 73.2197 34.922 73.2197C36.4174 73.2197 37.1651 72.3606 37.1651 70.6319V62.7786C37.1651 60.6363 36.6507 58.7539 35.6167 57.1312L29.1527 47.072C28.0391 45.3274 27.4823 43.3919 27.4823 41.2655V35.1144C27.4823 33.285 28.1929 31.7313 29.6087 30.448C31.0299 29.1648 32.801 28.5231 34.922 28.5231C37.0272 28.5231 38.7877 29.1648 40.2088 30.448C41.63 31.7313 42.3405 33.285 42.3405 35.1144V42.4003H37.1704V32.2775C37.1704 30.5541 36.4227 29.6897 34.9273 29.6897C33.4161 29.6897 32.6578 30.5541 32.6578 32.2775V39.8444C32.6578 41.9708 33.1722 43.8427 34.2009 45.46L40.6649 55.5245C41.7784 57.2691 42.3352 59.2152 42.3352 61.3575V67.795Z" fill="white"/>
<path d="M72.2956 67.7944C72.2956 69.6239 71.585 71.1828 70.1692 72.4608C68.7481 73.7441 66.9876 74.3857 64.8824 74.3857C62.756 74.3857 60.9849 73.7441 59.5691 72.4608C58.148 71.1775 57.4427 69.6239 57.4427 67.7944V60.5085H62.6129V70.6314C62.6129 72.3601 63.3712 73.2191 64.8824 73.2191C66.3725 73.2191 67.1202 72.3601 67.1202 70.6314V62.7781C67.1202 60.6358 66.6058 58.7533 65.5718 57.1307L59.1025 47.0714C57.9889 45.3269 57.4321 43.3914 57.4321 41.265V35.1138C57.4321 33.2844 58.1427 31.7307 59.5585 30.4475C60.9796 29.1642 62.7507 28.5226 64.8718 28.5226C66.9717 28.5226 68.7375 29.1642 70.1586 30.4475C71.5744 31.7307 72.285 33.2844 72.285 35.1138V42.3998H67.1149V32.2769C67.1149 30.5535 66.3672 29.6892 64.8771 29.6892C63.3659 29.6892 62.6076 30.5535 62.6076 32.2769V39.8439C62.6076 41.9702 63.1219 43.8421 64.1507 45.4594L70.6147 55.524C71.7282 57.2686 72.285 59.2146 72.285 61.3569V67.7944H72.2956Z" fill="white"/>
<path d="M20.0164 56.0067H18.8286V46.5414H24.6298V47.5807H20.0164V50.5714H23.8397V51.5259H20.0164V56.0067Z" fill="white"/>
<path d="M52.8878 54.9674V56.0067H46.7632V46.5414H52.7605V47.5807H47.951V50.5926H51.7636V51.5524H47.951V54.9674H52.8878Z" fill="white"/>
<path d="M82.2755 56.0067H81.0347L79.2901 51.9077H76.5804V56.0067H75.4722V46.5414H79.2C80.2128 46.5414 80.9658 46.8171 81.4536 47.3686C81.9415 47.9201 82.1854 48.5246 82.1854 49.1821C82.1854 49.6859 82.0475 50.1684 81.7771 50.635C81.5014 51.0964 81.0559 51.4251 80.4249 51.6266L82.2755 56.0067ZM76.5751 50.9479H79.0515C79.7037 50.9479 80.1916 50.7782 80.5097 50.4282C80.8332 50.0836 80.9923 49.6593 80.9923 49.1609C80.9923 48.6624 80.8226 48.27 80.4832 47.9943C80.1439 47.7133 79.7143 47.5754 79.1947 47.5754H76.5751V50.9479Z" fill="white"/>
<path d="M59.8127 92.7248C82.6013 87.6022 96.9225 64.9758 91.8 42.1872C86.6774 19.3986 64.051 5.07744 41.2624 10.2C18.4738 15.3225 4.15263 37.9489 9.27516 60.7375C14.3977 83.5261 37.0241 97.8473 59.8127 92.7248Z" stroke="white" stroke-width="1.06054"/>
</svg>

<svg width="102" height="102" fill="none" xmlns="http://www.w3.org/2000/svg"><path d="M42.335 67.795c0 1.83-.71 3.388-2.132 4.666-1.42 1.284-3.181 1.925-5.286 1.925-2.121 0-3.898-.641-5.314-1.925-1.42-1.283-2.126-2.837-2.126-4.666v-7.286h5.176v10.123c0 1.729.758 2.588 2.269 2.588 1.495 0 2.243-.86 2.243-2.588v-7.853c0-2.143-.514-4.025-1.548-5.648l-6.464-10.059c-1.114-1.745-1.67-3.68-1.67-5.806v-6.152c0-1.829.71-3.383 2.126-4.666 1.42-1.283 3.192-1.925 5.313-1.925 2.105 0 3.866.642 5.287 1.925 1.421 1.283 2.131 2.837 2.131 4.666V42.4h-5.17V32.278c0-1.724-.747-2.588-2.243-2.588-1.51 0-2.27.864-2.27 2.588v7.566c0 2.127.515 3.999 1.544 5.616l6.464 10.065c1.113 1.744 1.67 3.69 1.67 5.833v6.437Zm29.961-.001c0 1.83-.711 3.389-2.127 4.667-1.42 1.283-3.181 1.925-5.287 1.925-2.126 0-3.897-.642-5.313-1.925-1.421-1.284-2.126-2.837-2.126-4.667V60.51h5.17v10.12c0 1.73.758 2.588 2.27 2.588 1.49 0 2.237-.859 2.237-2.588v-7.853c0-2.142-.514-4.025-1.548-5.647l-6.47-10.06c-1.113-1.744-1.67-3.68-1.67-5.806v-6.151c0-1.83.71-3.383 2.127-4.666 1.42-1.284 3.192-1.925 5.313-1.925 2.1 0 3.865.641 5.287 1.925 1.415 1.283 2.126 2.836 2.126 4.666V42.4h-5.17V32.277c0-1.724-.748-2.588-2.238-2.588-1.511 0-2.27.864-2.27 2.588v7.567c0 2.126.515 3.998 1.544 5.615l6.464 10.065c1.113 1.745 1.67 3.69 1.67 5.833v6.437h.01Zm-52.28-11.787H18.83V46.54h5.8v1.04h-4.613v2.99h3.824v.955h-3.824v4.48Zm32.872-1.04v1.04h-6.125V46.54h5.998v1.04h-4.81v3.012h3.813v.96H47.95v3.414h4.937Zm29.387 1.04h-1.24l-1.745-4.1h-2.71v4.1h-1.108V46.54H79.2c1.013 0 1.766.276 2.254.828.488.551.731 1.156.731 1.813 0 .504-.138.986-.408 1.453-.276.461-.721.79-1.352.992l1.85 4.38Zm-5.7-5.06h2.477c.652 0 1.14-.169 1.458-.519.323-.344.482-.769.482-1.267 0-.499-.17-.891-.509-1.167-.34-.28-.769-.419-1.288-.419h-2.62v3.373Z" fill="#fff"/><path d="M59.813 92.725C82.6 87.602 96.923 64.975 91.8 42.187 86.677 19.4 64.051 5.077 41.262 10.2 18.474 15.323 4.152 37.949 9.275 60.737c5.123 22.79 27.75 37.11 50.538 31.988Z" stroke="#fff" stroke-width="1.061"/></svg>
